Numix-GalliumOS/16/status/battery-090.svg

<svg xmlns="http://www.w3.org/2000/svg" viewBox="0 0 16 16">
 <path d="m 6 2 0 2 -2 0 0 10 8 0 0 -10 -2 0 0 -2 z" style="fill:#ececec;opacity:0.4;fill-opacity:1"/>
 <path d="m 6 3.199 0 0.801 -2 0 l 0 10 8 0 0 -10 -2 0 0 -0.801 -4 0 z" style="fill:#ececec;opacity:1;fill-opacity:1"/>
</svg>

<?xml version="1.0" encoding="UTF-8" standalone="no"?>
<svg
   xmlns:dc="http://purl.org/dc/elements/1.1/"
   xmlns:cc="http://creativecommons.org/ns#"
   xmlns:rdf="http://www.w3.org/1999/02/22-rdf-syntax-ns#"
   xmlns:svg="http://www.w3.org/2000/svg"
   xmlns="http://www.w3.org/2000/svg"
   xmlns:sodipodi="http://sodipodi.sourceforge.net/DTD/sodipodi-0.dtd"
   xmlns:inkscape="http://www.inkscape.org/namespaces/inkscape"
   width="16"
   viewBox="0 0 16 16"
   height="16"
   id="svg2"
   version="1.1"
   inkscape:version="0.91 r"
   sodipodi:docname="gpm-battery-090.svg">
  <metadata
     id="metadata14">
    <rdf:RDF>
      <cc:Work
         rdf:about="">
        <dc:format>image/svg+xml</dc:format>
        <dc:type
           rdf:resource="http://purl.org/dc/dcmitype/StillImage" />
      </cc:Work>
    </rdf:RDF>
  </metadata>
  <defs
     id="defs12" />
  <sodipodi:namedview
     pagecolor="#ffffff"
     bordercolor="#666666"
     borderopacity="1"
     objecttolerance="10"
     gridtolerance="10"
     guidetolerance="10"
     inkscape:pageopacity="0"
     inkscape:pageshadow="2"
     inkscape:window-width="1366"
     inkscape:window-height="747"
     id="namedview10"
     showgrid="true"
     inkscape:zoom="30.341309"
     inkscape:cx="1.815895"
     inkscape:cy="10.010748"
     inkscape:window-x="0"
     inkscape:window-y="21"
     inkscape:window-maximized="1"
     inkscape:current-layer="svg2">
    <inkscape:grid
       type="xygrid"
       id="grid2991"
       empspacing="5"
       visible="true"
       enabled="true"
       snapvisiblegridlinesonly="true" />
  </sodipodi:namedview>
  <path
     d="M 6,2 6,4 4,4 4,14 12,14 12,4 10,4 10,2 z"
     id="path6"
     inkscape:connector-curvature="0"
     style="opacity:0.4;fill:#ececec;fill-opacity:1"
     sodipodi:nodetypes="ccccccccc" />
  <path
     style="opacity:1;fill:#ececec;fill-opacity:1"
     d="M 6,3.1992188 6,4 4,4 l 0,10 8,0 0,-10 -2,0 0,-0.8007812 -4,0 z"
     id="path6-2"
     inkscape:connector-curvature="0" />
</svg>
